assets/imgs/logo.svg

<svg fill="none" height="55" viewBox="0 0 273 55" width="273" xmlns="http://www.w3.org/2000/svg"><g clip-rule="evenodd" fill="#7e27ed" fill-rule="evenodd"><path d="m20.3741 1.18149c0-.651982.6718-1.18051343 1.5004-1.18051343.8287 0 1.5005.52853343 1.5005 1.18051343v5.90257c0 .65198-.6718 1.18051-1.5005 1.18051-.8286 0-1.5004-.52854-1.5004-1.18052zm23.4147 15.73891c0 2.9849-2.4396 5.4046-5.449 5.4046s-5.4489-2.4197-5.4489-5.4046 2.4395-5.4047 5.4489-5.4047 5.449 2.4198 5.449 5.4047zm-38.33985 5.4048c3.00938 0 5.44895-2.4197 5.44895-5.4046s-2.43957-5.4047-5.44895-5.4047c-3.00937 0-5.44895 2.4198-5.44894999 5.4047 0 2.9849 2.43957999 5.4046 5.44894999 5.4046zm21.94815-6.6942c.6027 2.8349-1.3713 5.6482-4.4091 6.2836-1.8345.3837-3.8776 1.1037-4.626 2.8265l-.1521.3503c-.7703 1.7733.0381 3.8296.796 5.6164.1403.3308.2511.6797.3286 1.0442.6491 3.053-1.2873 6.0431-4.3252 6.6785-3.0378.6354-6.02665-1.3244-6.67577-4.3775-.64911-3.053 1.28732-6.0431 4.32517-6.6785 1.7244-.3607 3.6373-1.0338 4.3408-2.6532l.2397-.5518c.7051-1.6232.0642-3.4852-.526-5.1998-.0559-.1624-.1113-.3234-.1651-.4828-.0607-.18-.1116-.3651-.152-.5549-.6027-2.8349 1.3713-5.6482 4.4091-6.2837 3.0379-.6354 5.9891 1.1477 6.5919 3.9827zm8.224 16.0517c.6027 2.835-1.3713 5.6483-4.4091 6.2837-1.8345.3837-3.8776 1.1037-4.626 2.8265l-.1521.3502c-.7703 1.7733.0381 3.8297.796 5.6165.1403.3308.2511.6797.3286 1.0441.6491 3.0531-1.2873 6.0431-4.3252 6.6786-3.0378.6354-6.0267-1.3245-6.6758-4.3775s1.2874-6.0431 4.3252-6.6785c1.7244-.3607 3.6373-1.0338 4.3408-2.6533l.2397-.5517c.7051-1.6232.0642-3.4853-.526-5.1999l-.0003-.0007c-.0558-.1621-.1111-.3229-.1648-.482-.0607-.18-.1116-.3651-.152-.5549-.6027-2.835 1.3713-5.6483 4.4091-6.2837 3.0379-.6354 5.9891 1.1477 6.5919 3.9826z"/><path d="m99.7 1.18051c0-.651979.672-1.18050998 1.5-1.18050998.829 0 1.501.52853398 1.501 1.18050998v5.90257c0 .65198-.672 1.18051-1.501 1.18051-.828 0-1.5-.52853-1.5-1.18051zm1.36 10.33429c-1.6837 0-3.0487 1.3512-3.0487 3.0181v37.044c0 1.6669 1.365 3.0182 3.0487 3.0182 1.684 0 3.049-1.3513 3.049-3.0182v-37.044c0-1.6669-1.365-3.0181-3.049-3.0181zm29.67 1.7019c0-.9399.769-1.7019 1.719-1.7019h2.53c.95 0 1.72.762 1.72 1.7019v39.6764c0 .94-.77 1.702-1.72 1.702h-3.525c-.708 0-1.345-.4328-1.603-1.0851-4.972-12.5795-8.628-21.9302-10.967-28.0519-.013-.0252-.024-.0513-.034-.0783-.237-.6266-1.264-.6462-1.204.2937.004.0686.007.133.01.1936.215 3.0261.237 6.5096.237 10.1107v16.9153c0 .94-.769 1.702-1.719 1.702h-2.466c-.95 0-1.719-.762-1.719-1.702v-39.6764c0-.9399.769-1.7019 1.719-1.7019h3.593c.706 0 1.341.4298 1.6 1.0797 5.692 14.2777 9.164 23.1523 10.417 26.6238l.274.7605c.375 1.0405 1.607.786 1.523-.3157-.214-3.3888-.343-6.6505-.385-9.7852zm13.479.5674c0-1.2533 1.027-2.2693 2.293-2.2693h16.394c.633 0 1.146.508 1.146 1.1346v3.0046c0 .6266-.513 1.1346-1.146 1.1346h-12.654v13.407h10.856c.633 0 1.147.508 1.147 1.1347v3.0045c0 .6267-.514 1.1347-1.147 1.1347h-10.856v13.9153h12.654c.633 0 1.146.508 1.146 1.1346v2.941c0 .6267-.513 1.1347-1.146 1.1347h-16.394c-1.266 0-2.293-1.016-2.293-2.2693zm74.656-1.702c0-.3133-.256-.5673-.573-.5673h-21.51c-.316 0-.573.254-.573.5673v4.1392c0 .3133.257.5673.573.5673h7.134c.316 0 .573.254.573.5673v36.6719c0 .3133.256.5673.573.5673h4.951c.316 0 .573-.254.573-.5673v-36.6719c0-.3133.256-.5673.573-.5673h7.133c.317 0 .573-.254.573-.5673zm4.439 0c0-.3133.257-.5673.573-.5673h19.26v5.2738h-13.226c-.317 0-.573.254-.573.5673v12.2724c0 .3133.256.5673.573.5673h11.429v5.2739h-11.429c-.317 0-.573.254-.573.5673v12.7807c0 .3133.256.5673.573.5673h13.226v5.2103h-19.26c-.316 0-.573-.254-.573-.5673zm31.982 25.7383v16.7747h-6.033v-43.0803h11.681c3.423 0 6.033.8472 7.83 2.5416 1.84 1.6944 2.76 4.0454 2.76 7.0529v6.8624c0 4.702-1.818 7.7307-5.455 9.0863l6.931 17.5371h-6.674l-6.226-16.7747zm0-21.0953v16.0757h5.135c1.797 0 3.081-.4025 3.851-1.2073.813-.8048 1.219-2.0333 1.219-3.6853v-6.4176c0-3.177-1.69-4.7655-5.07-4.7655zm-66.59 36.9638c.11.5276.579.9062 1.123.9062h3.551c.73 0 1.274-.6669 1.12-1.3735l-8.877-40.8111c-.113-.5226-.58-.8957-1.12-.8957h-6.624c-.539 0-1.005.3715-1.119.8926l-8.999 40.8111c-.156.7074.388 1.3766 1.12 1.3766h3.547c.544 0 1.013-.3786 1.122-.9062l2.093-10.078c.055-.2638.289-.4531.561-.4531h9.848c.272 0 .507.1893.562.4531zm-11.241-15.6778c-.362 0-.634-.329-.561-.6806l3.603-17.5146c.124-.6046.996-.6059 1.122-.0016l3.657 17.5146c.073.3521-.198.6822-.561.6822zm-105.9651-23.7373c.2474-1.5875 1.6326-2.7592 3.2551-2.7592 1.6226 0 3.0078 1.1717 3.2552 2.7592l3.0359 19.48c.2441 1.6731 2.8024 1.6771 3.0165 0l3.1631-19.9276c.2113-1.3309 1.3697-2.3116 2.7305-2.3116 1.6935 0 2.9888 1.4941 2.7321 3.1513l-5.6782 36.6468c-.2925 1.8882-1.9332 3.2823-3.8627 3.2823-1.9149 0-3.5477-1.3736-3.8567-3.2445l-2.8016-16.9613c-.143-1.1206-.9246-1.7364-1.7341-1.7364-.8094 0-1.591.6158-1.7341 1.7364l-2.8015 16.9613c-.309 1.8709-1.9418 3.2445-3.8567 3.2445-1.9295 0-3.5702-1.3941-3.8627-3.2823l-5.6782-36.6468c-.2567-1.6572 1.0386-3.1513 2.7321-3.1513 1.3608 0 2.5192.9807 2.7304 2.3116l3.1632 19.9276c.2141 1.6771 2.7724 1.6731 3.0165 0z"/></g></svg>

<svg width="273" height="55" viewBox="0 0 273 55" fill="none" xmlns="http://www.w3.org/2000/svg">
<path fill-rule="evenodd" clip-rule="evenodd" d="M20.3741 1.18149C20.3741 0.529508 21.0459 0.00097657 21.8745 0.00097657C22.7032 0.000976571 23.375 0.52951 23.375 1.18149L23.375 7.08406C23.375 7.73604 22.7032 8.26457 21.8745 8.26457C21.0459 8.26457 20.3741 7.73603 20.3741 7.08405L20.3741 1.18149ZM43.7888 16.9204C43.7888 19.9053 41.3492 22.325 38.3398 22.325C35.3304 22.325 32.8909 19.9053 32.8909 16.9204C32.8909 13.9355 35.3304 11.5157 38.3398 11.5157C41.3492 11.5157 43.7888 13.9355 43.7888 16.9204ZM5.44895 22.3252C8.45833 22.3252 10.8979 19.9055 10.8979 16.9206C10.8979 13.9357 8.45833 11.5159 5.44895 11.5159C2.43958 11.5159 4.99599e-09 13.9357 6.06617e-09 16.9206C7.13634e-09 19.9055 2.43958 22.3252 5.44895 22.3252ZM27.3971 15.631C27.9998 18.4659 26.0258 21.2792 22.988 21.9146C21.1535 22.2983 19.1104 23.0183 18.362 24.7411L18.2099 25.0914C17.4396 26.8647 18.248 28.921 19.0059 30.7078C19.1462 31.0386 19.257 31.3875 19.3345 31.752C19.9836 34.805 18.0472 37.7951 15.0093 38.4305C11.9715 39.0659 8.98265 37.1061 8.33353 34.053C7.68442 31 9.62085 28.0099 12.6587 27.3745C14.3831 27.0138 16.296 26.3407 16.9995 24.7213L17.2392 24.1695C17.9443 22.5463 17.3034 20.6843 16.7132 18.9697C16.6573 18.8073 16.6019 18.6463 16.5481 18.4869C16.4874 18.3069 16.4365 18.1218 16.3961 17.932C15.7934 15.0971 17.7674 12.2838 20.8052 11.6483C23.8431 11.0129 26.7943 12.796 27.3971 15.631ZM35.6211 31.6827C36.2238 34.5177 34.2498 37.331 31.212 37.9664C29.3775 38.3501 27.3344 39.0701 26.586 40.7929L26.4339 41.1431C25.6636 42.9164 26.472 44.9728 27.2299 46.7596C27.3702 47.0904 27.481 47.4393 27.5585 47.8037C28.2076 50.8568 26.2712 53.8468 23.2333 54.4823C20.1955 55.1177 17.2066 53.1578 16.5575 50.1048C15.9084 47.0518 17.8449 44.0617 20.8827 43.4263C22.6071 43.0656 24.52 42.3925 25.2235 40.773L25.4632 40.2213C26.1683 38.5981 25.5274 36.736 24.9372 35.0214L24.9369 35.0207C24.8811 34.8586 24.8258 34.6978 24.7721 34.5387C24.7114 34.3587 24.6605 34.1736 24.6201 33.9838C24.0174 31.1488 25.9914 28.3355 29.0292 27.7001C32.0671 27.0647 35.0183 28.8478 35.6211 31.6827Z" fill="#7E27ED"/>
<path fill-rule="evenodd" clip-rule="evenodd" d="M99.7 1.18051C99.7 0.528531 100.372 1.5502e-08 101.2 1.57967e-08C102.029 1.60914e-08 102.701 0.528534 102.701 1.18051L102.701 7.08308C102.701 7.73506 102.029 8.26359 101.2 8.26359C100.372 8.26359 99.7 7.73506 99.7 7.08308L99.7 1.18051ZM101.06 11.5148C99.3763 11.5148 98.0113 12.866 98.0113 14.5329L98.0113 51.5769C98.0113 53.2438 99.3763 54.5951 101.06 54.5951C102.744 54.5951 104.109 53.2438 104.109 51.5769L104.109 14.5329C104.109 12.866 102.744 11.5148 101.06 11.5148ZM130.73 13.2167C130.73 12.2768 131.499 11.5148 132.449 11.5148L134.979 11.5148C135.929 11.5148 136.699 12.2768 136.699 13.2167L136.699 52.8931C136.699 53.8331 135.929 54.5951 134.979 54.5951L131.454 54.5951C130.746 54.5951 130.109 54.1623 129.851 53.51C124.879 40.9305 121.223 31.5798 118.884 25.4581C118.871 25.4329 118.86 25.4068 118.85 25.3798C118.613 24.7532 117.586 24.7336 117.646 25.6735C117.65 25.7421 117.653 25.8065 117.656 25.8671C117.871 28.8932 117.893 32.3767 117.893 35.9778L117.893 52.8931C117.893 53.8331 117.124 54.5951 116.174 54.5951L113.708 54.5951C112.758 54.5951 111.989 53.8331 111.989 52.8931L111.989 13.2167C111.989 12.2768 112.758 11.5148 113.708 11.5148L117.301 11.5148C118.007 11.5148 118.642 11.9446 118.901 12.5945C124.593 26.8722 128.065 35.7468 129.318 39.2183L129.592 39.9788C129.967 41.0193 131.199 40.7648 131.115 39.6631C130.901 36.2743 130.772 33.0126 130.73 29.8779L130.73 13.2167ZM144.209 13.7841C144.209 12.5308 145.236 11.5148 146.502 11.5148L162.896 11.5148C163.529 11.5148 164.042 12.0228 164.042 12.6494L164.042 15.654C164.042 16.2806 163.529 16.7886 162.896 16.7886L150.242 16.7886L150.242 30.1956L161.098 30.1956C161.731 30.1956 162.245 30.7036 162.245 31.3303L162.245 34.3348C162.245 34.9615 161.731 35.4695 161.098 35.4695L150.242 35.4695L150.242 49.3848L162.896 49.3848C163.529 49.3848 164.042 49.8928 164.042 50.5194L164.042 53.4604C164.042 54.0871 163.529 54.5951 162.896 54.5951L146.502 54.5951C145.236 54.5951 144.209 53.5791 144.209 52.3258L144.209 13.7841ZM218.865 12.0821C218.865 11.7688 218.609 11.5148 218.292 11.5148L196.782 11.5148C196.466 11.5148 196.209 11.7688 196.209 12.0821L196.209 16.2213C196.209 16.5346 196.466 16.7886 196.782 16.7886L203.916 16.7886C204.232 16.7886 204.489 17.0426 204.489 17.3559L204.489 54.0278C204.489 54.3411 204.745 54.5951 205.062 54.5951L210.013 54.5951C210.329 54.5951 210.586 54.3411 210.586 54.0278L210.586 17.3559C210.586 17.0426 210.842 16.7886 211.159 16.7886L218.292 16.7886C218.609 16.7886 218.865 16.5346 218.865 16.2213L218.865 12.0821ZM223.304 12.0821C223.304 11.7688 223.561 11.5148 223.877 11.5148L243.137 11.5148L243.137 16.7886L229.911 16.7886C229.594 16.7886 229.338 17.0426 229.338 17.3559L229.338 29.6283C229.338 29.9416 229.594 30.1956 229.911 30.1956L241.34 30.1956L241.34 35.4695L229.911 35.4695C229.594 35.4695 229.338 35.7235 229.338 36.0368L229.338 48.8175C229.338 49.1308 229.594 49.3848 229.911 49.3848L243.137 49.3848L243.137 54.5951L223.877 54.5951C223.561 54.5951 223.304 54.3411 223.304 54.0278L223.304 12.0821ZM255.286 37.8204L255.286 54.5951L249.253 54.5951L249.253 11.5148L260.934 11.5148C264.357 11.5148 266.967 12.362 268.764 14.0564C270.604 15.7508 271.524 18.1018 271.524 21.1093L271.524 27.9717C271.524 32.6737 269.706 35.7024 266.069 37.058L273 54.5951L266.326 54.5951L260.1 37.8204L255.286 37.8204ZM255.286 16.7251L255.286 32.8008L260.421 32.8008C262.218 32.8008 263.502 32.3983 264.272 31.5935C265.085 30.7887 265.491 29.5602 265.491 27.9082L265.491 21.4906C265.491 18.3136 263.801 16.7251 260.421 16.7251L255.286 16.7251ZM188.696 53.6889C188.806 54.2165 189.275 54.5951 189.819 54.5951L193.37 54.5951C194.1 54.5951 194.644 53.9282 194.49 53.2216L185.613 12.4105C185.5 11.8879 185.033 11.5148 184.493 11.5148L177.869 11.5148C177.33 11.5148 176.864 11.8863 176.75 12.4074L167.751 53.2185C167.595 53.9259 168.139 54.5951 168.871 54.5951L172.418 54.5951C172.962 54.5951 173.431 54.2165 173.54 53.6889L175.633 43.6109C175.688 43.3471 175.922 43.1578 176.194 43.1578L186.042 43.1578C186.314 43.1578 186.549 43.3471 186.604 43.6109L188.696 53.6889ZM177.455 38.0111C177.093 38.0111 176.821 37.6821 176.894 37.3305L180.497 19.8159C180.621 19.2113 181.493 19.21 181.619 19.8143L185.276 37.3289C185.349 37.681 185.078 38.0111 184.715 38.0111L177.455 38.0111ZM71.4899 14.2738C71.7373 12.6863 73.1225 11.5146 74.745 11.5146C76.3676 11.5146 77.7528 12.6863 78.0002 14.2738L81.0361 33.7538C81.2802 35.4269 83.8385 35.4309 84.0526 33.7538L87.2157 13.8262C87.427 12.4953 88.5854 11.5146 89.9462 11.5146C91.6397 11.5146 92.935 13.0087 92.6783 14.6659L87.0001 51.3127C86.7076 53.2009 85.0669 54.595 83.1374 54.595C81.2225 54.595 79.5897 53.2214 79.2807 51.3505L76.4791 34.3892C76.3361 33.2686 75.5545 32.6528 74.745 32.6528C73.9356 32.6528 73.154 33.2686 73.0109 34.3892L70.2094 51.3505C69.9004 53.2214 68.2676 54.595 66.3527 54.595C64.4232 54.595 62.7825 53.2009 62.49 51.3127L56.8118 14.6659C56.5551 13.0087 57.8504 11.5146 59.5439 11.5146C60.9047 11.5146 62.0631 12.4953 62.2743 13.8262L65.4375 33.7538C65.6516 35.4309 68.2099 35.4269 68.454 33.7538L71.4899 14.2738Z" fill="#7E27ED"/>
</svg>
